!!!OTL: 1059. Ein Todtentanz des 17. Jahrhunderts.
!!!ODT: 1650
!!!ARE: Europa, Mitteleuropa, Deutschland, Schwaben, Ulm
!!!SCT: E1059
!!!TXL: @@DE
!!!YEM: Copyright 1995, estate of Helmut Schaffrath.
**kern	**text
*ICvox	*
*M6/4	*
*k[b-]	*
*F:	*
!LO:TX:a:t=Ulm 1650.	!
{4f	Wol-
=1	=1
2a	-auf
4a	mit
2a	mir
4cc	auf
=2	=2
2g	die-
4a	-ſen
2f}	Plan!
{4f	Ein
=3	=3
2e	Tanʒ
4f	will
2g	ich
4a	euch
=4	=4
2d	ſtel-
4d	-len
2c}	an,
{4c	dar-
=5	=5
2f	-bei
4g	müßt
2a	ihr
4g	mir
=6	=6
2a	All'
4b-	er-
2cc}	-ſcheinen,
{4cc	ihr
=7	=7
(4cc	thut
4dd)	.
4cc	gleich
2b-/	la-
4a	-chen
=8	=8
4a	o-
2g	-der
2f;}	weinen.
==	==
!!!AGN: Tanz - Lied, Toten - Tanz, geistlich
!!!ONB: ESAC (Essen Associative Code) Database: ERK3
!!!AMT: compound duple
!!!AIN: vox
!!!EED: Helmut Schaffrath
!!!EEV: 1.0
!!!GTL: Tanz- und Spiellieder
!!!URL-scan: https://rosdok.uni-rostock.de/mcrviewer/recordIdentifier/rosdok_ppn745177662/iview2/phys_0799.iview2?x=0&y=1789.6077162967995&scale=0.6479838709677419&rotation=0&layout=singlePageLayout
!!!ENC: Anna Maria Matuszewska
!!!EEV: 2024/12/23
*-	*-
